X:1
T:Title
%%score 1 { 2 | 3 }
L:1/8
Q:1/4=100
M:4/4
K:G
V:1 treble nm="Grand Piano, Soprano"
V:2 bass nm="Choir Pad, Bass"
V:3 bass 
V:1
 [B,D]2 [DB]2- [DB][DB][Ec][DB] | [DB]>[DA] [DA]6 | D2 [FA]2- [FA][FA][FB][FA] | [EA]>[DG] [DG]6 | %4
w: By~Daniel~Brink~Towner * * * * *||||
 D2 [GB]2- [GB][GB][=Fd][Fd] | [Ec]>[EG] [Ge]6 | [Gc]2 [FA][EG] [Fd][Gc] [GB]2- | [GB][DA] [DG]6 | %8
w: ||||
 z2 [Fd]2 [DF]4 | [Fd]2 [Gd]2 [DG]4 | [GB]2 [GB]2- [GB][GA][EG][EG] | [GA]>[GB] [FA]6 | %12
w: ||||
 [FA]2 [GB]2- [GB][GB] G2 | [DB]2 [=Fd]2- [Fd][Fd] [Ec]2 | [EA]2 [DG][GB]- [GB]2 [GB][FA] | %15
w: |||
 [Gd][Gc] [GB]2- [GB][DA] [DG]2- | [DG]6 z2 |] %17
w: ||
V:2
 G,2 G,2- G,/ z/ G, G,G, | G,>F, F,6 | F,2[K:treble] C2- CCDC | C>[K:bass]B, B,6 | B,2 D2- DDB,B, | %5
 C>C C6 | E2 DD DE D2- | DC B,6 | z2[K:bass] A,2 C4 | C2 B,2 B,4 | D2 ^C2- CCCC | ^C>C D6 | %12
 D2 D2- DD[K:bass] B,2 | G,2 G,2- G,G, G,2 | G,2 B,[K:treble]D- D2 DD | DE D2- DC B,2- | B,6 z2 |] %17
V:3
 z8 | D,>D, D,6 | D,2 D,2- D,D,D,D, | G,>G, G,6 | G,2 G,2- G,G,G,G, | C,>C, C,6 | %6
 C,2 D,C, B,,C, D,2- | D,D, G,6 | z2 D,2 D,4 | D,2 G,2 G,4 | G,2 A,2- A,A,A,A, | A,>A, D,6 | %12
 D,2 G,2- G,G, G,2 | z2 B,,2- B,,B,, C,2 | C,2 D,D,- D,2 D,C, | B,,A,, D,2- D,D, [G,,G,]2- | %16
 [G,,G,]6 z2 |] %17

